X: 72
T: GREARSON'S
%R: reel
B: Jean White "100 Popular Hornpipes, Reels, Jigs and Country Dances", Boston 1880 p.31
F: http://www.loc.gov/resource/sm1880.09124.0#seq-1
Z: 2014 John Chambers <jc:trillian.mit.edu>
M: C|
L: 1/8
K: F
% - - - - - - - - - - - - - - - - - - - - - - - - - - - - -
A |\
F2FA cAcf | F2FA BGGA |\
F2FA cAcf | defg af f :|
f/g/ |\
affc Accf | affd eggb |\
affc Accf | defg aff \
f/g/ |
affc Accf | affd eggb |\
afge fdcA | BGcB AFF H|]
% - - - - - - - - - - - - - - - - - - - - - - - - - - - - -

%%sep 1 1 500
%%sep 1 1 500
